X:1
T:Partekpolska motmelodi cello
R:Polska
O:Umeå, Västerbotten
M:3/4
L:1/8
K:Bm
||F3B AE | F3B cA | F3B AE | ^G3B A^G|
F3B AE | F3B cA | d2 c2 B2 | A2 ^G2 =G2 |
| F3B AE | F3B cA | F3B AE | ^G3B A^G|
F3B AE | F3B cA | c2 B2 A2 | ^G2 F2 E2 ||
L:1/4
|| DFE | ^GBA | DFE | A^GF/E/ |
| DFE | ^GBA | cBA | ^GFE |
|DFE | ^GBA | DFE | A^GF/E/ |
| DFE | ^GBA | d c B | A ^G E ||

